svg/icon/xby.svg

<svg height="32" viewBox="0 0 32 32" width="32" xmlns="http://www.w3.org/2000/svg" xmlns:xlink="http://www.w3.org/1999/xlink"><defs><linearGradient id="a" x1="50%" x2="50%" y1="0%" y2="100%"><stop offset="0" stop-color="#fff" stop-opacity=".5"/><stop offset="1" stop-opacity=".5"/></linearGradient><circle id="b" cx="16" cy="15" r="15"/><filter id="c" height="111.7%" width="111.7%" x="-5.8%" y="-4.2%"><feOffset dy=".5" in="SourceAlpha" result="shadowOffsetOuter1"/><feGaussianBlur in="shadowOffsetOuter1" result="shadowBlurOuter1" stdDeviation=".5"/><feComposite in="shadowBlurOuter1" in2="SourceAlpha" operator="out" result="shadowBlurOuter1"/><feColorMatrix in="shadowBlurOuter1" values="0 0 0 0 0   0 0 0 0 0   0 0 0 0 0  0 0 0 0.199473505 0"/></filter><path id="d" d="m6 8.0161924c0-.01518037.21001448-.0161924 2.91847714-.01416835l2.91847716.00303608 1.6604593 2.79318927c.9124767 1.5362541 1.6718395 2.8144418 1.6873578 2.8407544l.0279329.0465532.2638113-.4503512c.1448376-.2469341.2627768-.4543993.2607077-.4604714-.0020692-.0060722-.6372854-1.0778067-1.4100973-2.379271-.7728119-1.30146427-1.405959-2.37319885-1.405959-2.38129505 0-.0121443.4386509-.01416835 3.0726257-.01416835 1.7059797 0 3.0726257.0040481 3.0726257.00910823 0 .02125252-6.5156218 11.09786717-6.5301056 11.10090327-.01138.002024-.9642044-1.6081079-3.27643281-5.5367893-1.79288227-3.0472076-3.25987999-5.54690955-3.25987999-5.5570298zm14.139251-.00910822c.0020691-.0040481 1.3221601-.00708418 2.9329609-.00708418h2.9277881l-.0041382.02226455c-.0031037.01315633-1.4628595 2.50071405-3.2443617 5.52869305-2.1580799 3.6665669-3.2453962 5.5064286-3.2588454 5.5084526-.0134492.0020241-.3196773-.5070246-1.3459549-2.2345514-.7314298-1.2306225-1.3325057-2.2396115-1.3366439-2.2416356-.0082765-.0050601-.5327954.885522-.5286572.8976663.0010346.0050601.6031451 1.0201213 1.3376785 2.2558039.7666046 1.291344 1.3335402 2.2547919 1.3304366 2.2649122-.009311.0354209-2.9360646 4.9953558-2.9484792 4.9983919-.018622.0040481-2.9288227-4.9407065-2.9226154-4.9649951.0041382-.0111323 6.9532382-11.85081383 7.0608318-12.02791822z"/><filter id="e" height="120.6%" width="117.5%" x="-8.8%" y="-7.4%"><feOffset dy=".5" in="SourceAlpha" result="shadowOffsetOuter1"/><feGaussianBlur in="shadowOffsetOuter1" result="shadowBlurOuter1" stdDeviation=".5"/><feColorMatrix in="shadowBlurOuter1" values="0 0 0 0 0   0 0 0 0 0   0 0 0 0 0  0 0 0 0.204257246 0"/></filter></defs><g fill="none" fill-rule="evenodd"><use fill="#000" filter="url(#c)" xlink:href="#b"/><use fill="#56f4f1" xlink:href="#b"/><use fill="url(#a)" xlink:href="#b"/><circle cx="16" cy="15" r="14.5" stroke="#000" stroke-opacity=".097"/><g fill-rule="nonzero"><use fill="#000" filter="url(#e)" xlink:href="#d"/><use fill="#fff" fill-rule="evenodd" xlink:href="#d"/></g></g></svg>

<svg xmlns="http://www.w3.org/2000/svg" xmlns:xlink="http://www.w3.org/1999/xlink" width="32" height="32" viewBox="0 0 32 32">
  <defs>
    <linearGradient id="xby-c" x1="50%" x2="50%" y1="0%" y2="100%">
      <stop offset="0%" stop-color="#FFF" stop-opacity=".5"/>
      <stop offset="100%" stop-opacity=".5"/>
    </linearGradient>
    <circle id="xby-b" cx="16" cy="15" r="15"/>
    <filter id="xby-a" width="111.7%" height="111.7%" x="-5.8%" y="-4.2%" filterUnits="objectBoundingBox">
      <feOffset dy=".5" in="SourceAlpha" result="shadowOffsetOuter1"/>
      <feGaussianBlur in="shadowOffsetOuter1" result="shadowBlurOuter1" stdDeviation=".5"/>
      <feComposite in="shadowBlurOuter1" in2="SourceAlpha" operator="out" result="shadowBlurOuter1"/>
      <feColorMatrix in="shadowBlurOuter1" values="0 0 0 0 0   0 0 0 0 0   0 0 0 0 0  0 0 0 0.199473505 0"/>
    </filter>
    <path id="xby-e" d="M6,8.0161924 C6,8.00101203 6.21001448,8 8.91847714,8.00202405 L11.8369543,8.00506013 L13.4974136,10.7982494 C14.4098903,12.3345035 15.1692531,13.6126912 15.1847714,13.6390038 L15.2127043,13.685557 L15.4765156,13.2352058 C15.6213532,12.9882717 15.7392924,12.7808065 15.7372233,12.7747344 C15.7351541,12.7686622 15.0999379,11.6969277 14.327126,10.3954634 C13.5543141,9.09399913 12.921167,8.02226455 12.921167,8.01416835 C12.921167,8.00202405 13.3598179,8 15.9937927,8 C17.6997724,8 19.0664184,8.0040481 19.0664184,8.00910823 C19.0664184,8.03036075 12.5507966,19.1069754 12.5363128,19.1100115 C12.5249328,19.1120355 11.5721084,17.5019036 9.25987999,13.5732222 C7.46699772,10.5260146 6,8.02631265 6,8.0161924 Z M20.139251,8.00708418 C20.1413201,8.00303608 21.4614111,8 23.0722119,8 L26,8 L25.9958618,8.02226455 C25.9927581,8.03542088 24.5330023,10.5229786 22.7515001,13.5509576 C20.5934202,17.2175245 19.5061039,19.0573862 19.4926547,19.0594102 C19.4792055,19.0614343 19.1729774,18.5523856 18.1466998,16.8248588 C17.41527,15.5942363 16.8141941,14.5852473 16.8100559,14.5832232 C16.8017794,14.5781631 16.2772605,15.4687452 16.2813987,15.4808895 C16.2824333,15.4859496 16.8845438,16.5010108 17.6190772,17.7366934 C18.3856818,19.0280374 18.9526174,19.9914853 18.9495138,20.0016056 C18.9402028,20.0370265 16.0134492,24.9969614 16.0010346,24.9999975 C15.9824126,25.0040456 13.0722119,20.059291 13.0784192,20.0350024 C13.0825574,20.0238701 20.0316574,8.18418857 20.139251,8.00708418 Z"/>
    <filter id="xby-d" width="117.5%" height="120.6%" x="-8.8%" y="-7.4%" filterUnits="objectBoundingBox">
      <feOffset dy=".5" in="SourceAlpha" result="shadowOffsetOuter1"/>
      <feGaussianBlur in="shadowOffsetOuter1" result="shadowBlurOuter1" stdDeviation=".5"/>
      <feColorMatrix in="shadowBlurOuter1" values="0 0 0 0 0   0 0 0 0 0   0 0 0 0 0  0 0 0 0.204257246 0"/>
    </filter>
  </defs>
  <g fill="none" fill-rule="evenodd">
    <use fill="#000" filter="url(#xby-a)" xlink:href="#xby-b"/>
    <use fill="#56F4F1" xlink:href="#xby-b"/>
    <use fill="url(#xby-c)" style="mix-blend-mode:soft-light" xlink:href="#xby-b"/>
    <circle cx="16" cy="15" r="14.5" stroke="#000" stroke-opacity=".097"/>
    <g fill-rule="nonzero">
      <use fill="#000" filter="url(#xby-d)" xlink:href="#xby-e"/>
      <use fill="#FFF" fill-rule="evenodd" xlink:href="#xby-e"/>
    </g>
  </g>
</svg>
